X:5
T:Amazing Grace
M:3/4
L:1/4
Q:1/4=90
K:G
G/2|G2 B|B2 G|B2 d|d2 B|
d2 B|B2 G|E2 G|G3|
G2 B|B2 G|B2 d|d2 B|
d2 e|d2 B|G2 E|G3||

